lg/perf-rocks.svg

<svg viewBox="0 0 512 99" version="1.1" xmlns="http://www.w3.org/2000/svg" preserveAspectRatio="xMidYMid" height="1em" width="1em">
  <g>
    <path d="M225.060788,32.8623876 L237.030381,0 L203.381041,0 L194.285051,47.8877692 L211.109721,47.8877692 L199.865102,98.4876194 L243.397388,32.8623876 L225.060788,32.8623876 Z M39.9047896,30.9317858 C39.9047896,34.0033059 39.3350806,36.5917657 38.1956459,38.6972431 C37.0562111,40.8027206 35.5204742,42.4994623 33.588389,43.787519 C31.6563037,45.0755757 29.4270082,46.0168339 26.9004354,46.6113217 C24.3738626,47.2058094 21.7482478,47.5030488 19.0235123,47.5030488 L12.7071118,47.5030488 L12.7071118,67.3439781 L0,67.3439781 L0,14.7320758 L19.3207547,14.7320758 C22.1941121,14.7320758 24.8816518,15.0169302 27.3834543,15.5866476 C29.8852568,16.156365 32.0650125,17.0728532 33.9227866,18.3361397 C35.7805608,19.5994261 37.2419878,21.2590129 38.3071118,23.3149497 C39.3722357,25.3708865 39.9047896,27.9098065 39.9047896,30.9317858 Z M27.1976778,31.0060964 C27.1976778,29.7675803 26.9499783,28.7520122 26.4545718,27.9593619 C25.9591654,27.1667117 25.2903768,26.5474629 24.4481858,26.101597 C23.6059948,25.6557311 22.6523518,25.3584918 21.5872279,25.2098699 C20.522104,25.061248 19.4198412,24.9869381 18.2804064,24.9869381 L12.7071118,24.9869381 L12.7071118,37.3968077 L18.0574746,37.3968077 C19.2464501,37.3968077 20.3858678,37.297728 21.475762,37.0995653 C22.5656562,36.9014026 23.5440692,36.5546234 24.4110305,36.059217 C25.2779918,35.5638105 25.9591654,34.9074069 26.4545718,34.0899861 C26.9499783,33.2725654 27.1976778,32.2446125 27.1976778,31.0060964 Z M47.5587808,67.3439781 L47.5587808,14.7320758 L82.9306241,14.7320758 L82.9306241,25.5071123 L59.820029,25.5071123 L59.820029,35.3904216 L81.667344,35.3904216 L81.667344,45.5709733 L59.820029,45.5709733 L59.820029,56.494631 L84.2682148,56.494631 L84.2682148,67.3439781 L47.5587808,67.3439781 Z M120.829028,67.3439781 L109.459507,46.4627005 L105.149492,46.4627005 L105.149492,67.3439781 L92.665312,67.3439781 L92.665312,14.7320758 L112.729173,14.7320758 C115.255745,14.7320758 117.720356,14.9921602 120.123077,15.512337 C122.525798,16.0325138 124.680784,16.9118471 126.588099,18.1503632 C128.495413,19.3888793 130.018766,21.0236961 131.1582,23.0548626 C132.297635,25.0860289 132.867344,27.6125641 132.867344,30.6345434 C132.867344,34.2014699 131.901316,37.1986339 129.969231,39.6261256 C128.037146,42.0536173 125.361991,43.7875139 121.943687,44.8278673 L135.691147,67.3439781 L120.829028,67.3439781 Z M120.308853,30.8574752 C120.308853,29.6189591 120.048769,28.615776 119.528592,27.847896 C119.008415,27.0800161 118.339627,26.4855371 117.522206,26.0644417 C116.704785,25.6433463 115.788297,25.3584918 114.772714,25.2098699 C113.757131,25.061248 112.778718,24.9869381 111.837446,24.9869381 L105.075181,24.9869381 L105.075181,37.2481865 L111.09434,37.2481865 C112.134693,37.2481865 113.199801,37.1614916 114.289695,36.9880994 C115.379589,36.8147072 116.370387,36.5050829 117.262119,36.059217 C118.153851,35.6133511 118.884564,34.9693325 119.454282,34.1271414 C120.023999,33.2849504 120.308853,32.1950727 120.308853,30.8574752 Z M154.491727,25.5814228 L154.491727,36.4307699 L174.85283,36.4307699 L174.85283,46.908564 L154.491727,46.908564 L154.491727,67.3439781 L141.933237,67.3439781 L141.933237,14.7320758 L176.561974,14.7320758 L176.561974,25.5814228 L154.491727,25.5814228 Z M287.21045,67.3439781 L275.840929,46.4627005 L271.530914,46.4627005 L271.530914,67.3439781 L259.046734,67.3439781 L259.046734,14.7320758 L279.110595,14.7320758 C281.637167,14.7320758 284.101778,14.9921602 286.504499,15.512337 C288.907221,16.0325138 291.062207,16.9118471 292.969521,18.1503632 C294.876835,19.3888793 296.400188,21.0236961 297.539623,23.0548626 C298.679057,25.0860289 299.248766,27.6125641 299.248766,30.6345434 C299.248766,34.2014699 298.282738,37.1986339 296.350653,39.6261256 C294.418568,42.0536173 291.743412,43.7875139 288.325109,44.8278673 L302.072569,67.3439781 L287.21045,67.3439781 Z M286.690276,30.8574752 C286.690276,29.6189591 286.430191,28.615776 285.910015,27.847896 C285.389838,27.0800161 284.72105,26.4855371 283.903628,26.0644417 C283.086207,25.6433463 282.169721,25.3584918 281.154136,25.2098699 C280.138552,25.061248 279.160139,24.9869381 278.218868,24.9869381 L271.456604,24.9869381 L271.456604,37.2481865 L277.475762,37.2481865 C278.516115,37.2481865 279.581223,37.1614916 280.671118,36.9880994 C281.761012,36.8147072 282.75181,36.5050829 283.643541,36.059217 C284.535273,35.6133511 285.265985,34.9693325 285.835704,34.1271414 C286.405422,33.2849504 286.690276,32.1950727 286.690276,30.8574752 Z M363.155878,40.8150951 C363.155878,44.9765094 362.43755,48.7786968 361.000871,52.2217717 C359.564192,55.6648466 357.570211,58.6124707 355.018868,61.0647327 C352.467525,63.5169947 349.433205,65.4118958 345.91582,66.7494933 C342.398435,68.0870908 338.583863,68.7558794 334.471988,68.7558794 C330.360114,68.7558794 326.557929,68.0870908 323.065312,66.7494933 C319.572696,65.4118958 316.550762,63.5169947 313.999419,61.0647327 C311.448077,58.6124707 309.454096,55.6648466 308.017417,52.2217717 C306.580737,48.7786968 305.862409,44.9765094 305.862409,40.8150951 C305.862409,36.6041403 306.580737,32.8019527 308.017417,29.4084186 C309.454096,26.0148845 311.448077,23.1291851 313.999419,20.7512341 C316.550762,18.3732831 319.572696,16.5403067 323.065312,15.2522499 C326.557929,13.9641932 330.360114,13.3201744 334.471988,13.3201744 C338.583863,13.3201744 342.398435,13.9641932 345.91582,15.2522499 C349.433205,16.5403067 352.467525,18.3732831 355.018868,20.7512341 C357.570211,23.1291851 359.564192,26.0148845 361.000871,29.4084186 C362.43755,32.8019527 363.155878,36.6041403 363.155878,40.8150951 Z M349.557039,40.8150951 C349.557039,38.5362255 349.185491,36.4060096 348.44238,34.4243838 C347.69927,32.442758 346.671317,30.7460163 345.358491,29.334108 C344.045664,27.9221997 342.460387,26.8075519 340.602612,25.9901311 C338.744838,25.1727104 336.701318,24.7640063 334.471988,24.7640063 C332.242659,24.7640063 330.211523,25.1727104 328.37852,25.9901311 C326.545516,26.8075519 324.960239,27.9221997 323.622642,29.334108 C322.285044,30.7460163 321.257091,32.442758 320.538752,34.4243838 C319.820412,36.4060096 319.461248,38.5362255 319.461248,40.8150951 C319.461248,43.1930461 319.832797,45.3851868 320.575907,47.3915829 C321.319018,49.397979 322.34697,51.1194906 323.659797,52.5561694 C324.972624,53.9928482 326.545516,55.1198808 328.37852,55.9373015 C330.211523,56.7547223 332.242659,57.1634264 334.471988,57.1634264 C336.701318,57.1634264 338.732454,56.7547223 340.565457,55.9373015 C342.39846,55.1198808 343.983738,53.9928482 345.321335,52.5561694 C346.658933,51.1194906 347.69927,49.397979 348.44238,47.3915829 C349.185491,45.3851868 349.557039,43.1930461 349.557039,40.8150951 Z M417.848476,60.0615396 C415.520065,62.7367346 412.646751,64.8545652 409.228447,66.4150956 C405.810143,67.975626 401.871721,68.7558794 397.413062,68.7558794 C393.35073,68.7558794 389.598082,68.0870908 386.155007,66.7494933 C382.711933,65.4118958 379.727152,63.5169947 377.200581,61.0647327 C374.674009,58.6124707 372.692412,55.6772316 371.255733,52.258927 C369.819054,48.8406224 369.100726,45.0755898 369.100726,40.9637163 C369.100726,36.7527615 369.83144,32.9381891 371.292888,29.5198845 C372.754336,26.1015798 374.773088,23.1911107 377.349202,20.7883894 C379.925316,18.3856681 382.947249,16.5403067 386.415094,15.2522499 C389.88294,13.9641932 393.623201,13.3201744 397.635994,13.3201744 C401.351543,13.3201744 405.005111,13.9765781 408.596807,15.2894052 C412.188503,16.6022323 415.098972,18.5219035 417.328302,21.0484765 L408.708273,29.6685057 C407.519296,28.0336644 405.95879,26.8199367 404.026705,26.0272864 C402.094621,25.2346362 400.113024,24.8383169 398.081858,24.8383169 C395.852528,24.8383169 393.809008,25.247021 391.951234,26.0644417 C390.09346,26.8818625 388.495798,28.0088951 387.1582,29.4455739 C385.820603,30.8822527 384.780266,32.5789942 384.037155,34.5358497 C383.294045,36.4927053 382.922496,38.6353059 382.922496,40.9637163 C382.922496,43.3416673 383.294045,45.521423 384.037155,47.5030488 C384.780266,49.4846746 385.808218,51.1814164 387.121045,52.5933247 C388.433872,54.005233 390.006765,55.107496 391.839768,55.9001462 C393.672771,56.6927965 395.679138,57.0891158 397.858926,57.0891158 C400.385498,57.0891158 402.590024,56.5937167 404.472569,55.6029038 C406.355114,54.6120909 407.866081,53.3240535 409.005515,51.7387528 L417.848476,60.0615396 Z M455.449637,67.3439781 L435.905951,43.1187236 L435.757329,43.1187236 L435.757329,67.3439781 L423.273149,67.3439781 L423.273149,14.7320758 L435.757329,14.7320758 L435.757329,36.1335276 L435.980261,36.1335276 L454.780842,14.7320758 L470.683309,14.7320758 L448.018578,38.9573302 L472.0209,67.3439781 L455.449637,67.3439781 Z M503.900145,28.4052255 C502.81025,27.0180875 501.385979,25.9158247 499.627286,25.098404 C497.868593,24.2809832 496.171853,23.8722791 494.53701,23.8722791 C493.69482,23.8722791 492.840255,23.946589 491.973295,24.0952109 C491.106334,24.2438328 490.32608,24.5286874 489.632511,24.9497828 C488.938942,25.3708782 488.356849,25.9158173 487.886212,26.5846159 C487.415575,27.2534145 487.180261,28.107978 487.180261,29.1483315 C487.180261,30.040063 487.366035,30.7831616 487.737591,31.3776494 C488.109146,31.9721372 488.654084,32.492306 489.372424,32.9381719 C490.090763,33.3840378 490.945326,33.7927419 491.936139,34.1642967 C492.926953,34.5358516 494.0416,34.9197859 495.280116,35.316111 C497.06358,35.9105988 498.921326,36.5670024 500.853411,37.2853418 C502.785496,38.0036812 504.544163,38.9573242 506.129463,40.1462998 C507.714763,41.3352753 509.027572,42.8090874 510.067925,44.5677803 C511.108278,46.3264731 511.628447,48.5186139 511.628447,51.144268 C511.628447,54.1662473 511.071122,56.7794772 509.956459,58.984036 C508.841795,61.1885947 507.343213,63.009186 505.460668,64.4458648 C503.578122,65.8825436 501.423138,66.9476513 498.995646,67.6412205 C496.568153,68.3347896 494.06639,68.6815688 491.490276,68.6815688 C487.725188,68.6815688 484.084003,68.0251652 480.566618,66.712338 C477.049233,65.3995108 474.126379,63.5293797 471.797968,61.101888 L480.120755,52.63048 C481.40881,54.2157807 483.105554,55.5409729 485.21103,56.6060969 C487.316507,57.6712209 489.40957,58.2037747 491.490276,58.2037747 C492.431547,58.2037747 493.348036,58.104695 494.239768,57.9065323 C495.1315,57.7083697 495.911754,57.3863605 496.580552,56.9404946 C497.249349,56.4946287 497.781903,55.9001499 498.178229,55.1570403 C498.574556,54.4139306 498.772714,53.5222122 498.772714,52.4818588 C498.772714,51.4910459 498.525014,50.6488676 498.029608,49.9552985 C497.534203,49.2617294 496.828259,48.6300958 495.911756,48.0603783 C494.995253,47.4906608 493.855837,46.9704919 492.493469,46.4998558 C491.1311,46.0292196 489.582978,45.5214355 487.849057,44.9764885 C486.164675,44.4315415 484.517473,43.7875227 482.907402,43.044413 C481.297331,42.3013033 479.860675,41.3476601 478.597388,40.1834551 C477.3341,39.01925 476.318532,37.6073626 475.550653,35.9477511 C474.782774,34.2881395 474.398839,32.2693884 474.398839,29.8914374 C474.398839,26.9685393 474.993317,24.4667743 476.182293,22.3860672 C477.37127,20.3053601 478.931776,18.5962335 480.863861,17.258636 C482.795945,15.9210386 484.9757,14.9426255 487.403193,14.3233675 C489.830686,13.7041094 492.28291,13.394485 494.759942,13.394485 C497.73238,13.394485 500.7667,13.9394239 503.86299,15.0293181 C506.95928,16.1192123 509.671589,17.7292592 512,19.8595069 L503.900145,28.4052255 Z" fill="#3B4C60"/>
  </g>
</svg>

<svg viewBox="0 0 512 99" xmlns="http://www.w3.org/2000/svg" preserveAspectRatio="xMidYMid" height="1em" width="1em">
  <path d="M225.06 32.862 237.03 0h-33.649l-9.096 47.888h16.825l-11.245 50.6 43.532-65.626h-18.336Zm-185.155-1.93c0 3.071-.57 5.66-1.71 7.765-1.139 2.106-2.675 3.802-4.607 5.09-1.932 1.289-4.161 2.23-6.688 2.824a34.28 34.28 0 0 1-7.876.892h-6.317v19.841H0V14.732h19.32c2.874 0 5.562.285 8.063.855 2.502.57 4.682 1.486 6.54 2.75 1.858 1.262 3.319 2.922 4.384 4.978 1.065 2.056 1.598 4.595 1.598 7.617Zm-12.707.074c0-1.238-.248-2.254-.743-3.047a5.177 5.177 0 0 0-2.007-1.857c-.842-.446-1.796-.744-2.86-.892a23.911 23.911 0 0 0-3.308-.223h-5.573v12.41h5.35c1.19 0 2.329-.1 3.419-.297 1.09-.199 2.068-.545 2.935-1.04a5.573 5.573 0 0 0 2.044-1.97c.495-.817.743-1.845.743-3.084Zm20.36 36.338V14.732h35.373v10.775H59.82v9.883h21.847v10.181H59.82v10.924h24.448v10.849h-36.71Zm73.271 0-11.37-20.881h-4.31v20.881H92.665V14.732h20.064c2.527 0 4.991.26 7.394.78 2.403.52 4.558 1.4 6.465 2.638 1.907 1.239 3.43 2.874 4.57 4.905 1.14 2.031 1.71 4.558 1.71 7.58 0 3.566-.967 6.564-2.899 8.991-1.932 2.428-4.607 4.162-8.025 5.202l13.747 22.516H120.83Zm-.52-36.487c0-1.238-.26-2.241-.78-3.01a5.346 5.346 0 0 0-2.007-1.783c-.817-.42-1.734-.706-2.75-.854a20.278 20.278 0 0 0-2.935-.223h-6.762v12.261h6.02c1.04 0 2.105-.087 3.195-.26 1.09-.173 2.08-.483 2.972-.929a5.674 5.674 0 0 0 2.192-1.932c.57-.842.855-1.932.855-3.27Zm34.183-5.276v10.85h20.36v10.478h-20.36v20.435h-12.559V14.732h34.629v10.85h-22.07ZM287.21 67.344l-11.37-20.881h-4.31v20.881h-12.483V14.732h20.064c2.526 0 4.99.26 7.393.78 2.403.52 4.558 1.4 6.466 2.638 1.907 1.239 3.43 2.874 4.57 4.905 1.14 2.031 1.709 4.558 1.709 7.58 0 3.566-.966 6.564-2.898 8.991-1.932 2.428-4.608 4.162-8.026 5.202l13.748 22.516H287.21Zm-.52-36.487c0-1.238-.26-2.241-.78-3.01a5.346 5.346 0 0 0-2.006-1.783 8.731 8.731 0 0 0-2.75-.854 20.278 20.278 0 0 0-2.935-.223h-6.762v12.261h6.019c1.04 0 2.105-.087 3.195-.26a10.18 10.18 0 0 0 2.973-.929 5.674 5.674 0 0 0 2.192-1.932c.57-.842.854-1.932.854-3.27Zm76.466 9.958c0 4.162-.718 7.964-2.155 11.407-1.437 3.443-3.43 6.39-5.982 8.843-2.551 2.452-5.586 4.347-9.103 5.684-3.518 1.338-7.332 2.007-11.444 2.007-4.112 0-7.914-.669-11.407-2.007-3.492-1.337-6.514-3.232-9.066-5.684-2.55-2.453-4.545-5.4-5.982-8.843-1.436-3.443-2.155-7.245-2.155-11.407 0-4.21.719-8.013 2.155-11.407 1.437-3.393 3.431-6.279 5.982-8.657 2.552-2.378 5.574-4.21 9.066-5.499 3.493-1.288 7.295-1.932 11.407-1.932s7.926.644 11.444 1.932c3.517 1.288 6.552 3.121 9.103 5.5 2.551 2.377 4.545 5.263 5.982 8.656 1.437 3.394 2.155 7.196 2.155 11.407Zm-13.599 0c0-2.279-.372-4.409-1.115-6.39-.743-1.982-1.77-3.679-3.084-5.09-1.312-1.413-2.898-2.527-4.755-3.345-1.858-.817-3.902-1.226-6.131-1.226-2.23 0-4.26.409-6.093 1.226a14.752 14.752 0 0 0-4.756 3.344c-1.338 1.412-2.366 3.109-3.084 5.09-.719 1.982-1.078 4.112-1.078 6.391 0 2.378.372 4.57 1.115 6.577.743 2.006 1.771 3.727 3.084 5.164a14.08 14.08 0 0 0 4.719 3.381c1.833.818 3.864 1.226 6.093 1.226 2.23 0 4.26-.408 6.093-1.226a14.483 14.483 0 0 0 4.756-3.38c1.338-1.438 2.378-3.159 3.121-5.165.743-2.007 1.115-4.199 1.115-6.577Zm68.291 19.247c-2.328 2.675-5.201 4.793-8.62 6.353-3.418 1.56-7.356 2.34-11.815 2.34-4.062 0-7.815-.668-11.258-2.006-3.443-1.337-6.428-3.232-8.954-5.684-2.527-2.453-4.509-5.388-5.945-8.806-1.437-3.418-2.155-7.183-2.155-11.295 0-4.211.73-8.026 2.192-11.444 1.461-3.418 3.48-6.329 6.056-8.732 2.576-2.402 5.598-4.248 9.066-5.536 3.468-1.288 7.208-1.932 11.221-1.932 3.716 0 7.37.657 10.96 1.97 3.593 1.312 6.503 3.232 8.732 5.758l-8.62 8.62c-1.189-1.634-2.75-2.848-4.681-3.64a15.527 15.527 0 0 0-5.945-1.19c-2.23 0-4.273.409-6.13 1.226-1.859.818-3.456 1.945-4.794 3.382-1.337 1.436-2.378 3.133-3.12 5.09-.744 1.957-1.116 4.1-1.116 6.428 0 2.378.372 4.557 1.115 6.539.743 1.982 1.771 3.678 3.084 5.09 1.313 1.412 2.886 2.514 4.719 3.307 1.833.793 3.84 1.19 6.019 1.19 2.526 0 4.731-.496 6.614-1.487 1.882-.99 3.393-2.279 4.533-3.864l8.842 8.323Zm37.602 7.282-19.544-24.225h-.149v24.225h-12.484V14.732h12.484v21.402h.223l18.8-21.402h15.903L448.02 38.957l24.002 28.387H455.45Zm48.45-38.939c-1.09-1.387-2.514-2.49-4.273-3.307-1.758-.817-3.455-1.226-5.09-1.226-.842 0-1.697.075-2.564.223a6.619 6.619 0 0 0-2.34.855 5.787 5.787 0 0 0-1.747 1.635c-.47.668-.706 1.523-.706 2.563 0 .892.186 1.635.558 2.23.371.594.916 1.114 1.634 1.56.719.446 1.573.855 2.564 1.226.991.372 2.106.756 3.344 1.152 1.784.595 3.641 1.251 5.573 1.97a20.843 20.843 0 0 1 5.276 2.86 15.018 15.018 0 0 1 3.939 4.422c1.04 1.758 1.56 3.95 1.56 6.576 0 3.022-.557 5.635-1.672 7.84-1.114 2.205-2.613 4.025-4.495 5.462-1.883 1.437-4.038 2.502-6.465 3.195a27.185 27.185 0 0 1-7.506 1.04c-3.765 0-7.406-.656-10.923-1.969-3.518-1.312-6.44-3.183-8.769-5.61l8.323-8.472c1.288 1.586 2.985 2.911 5.09 3.976 2.106 1.065 4.199 1.598 6.28 1.598.94 0 1.857-.1 2.749-.297.892-.199 1.672-.52 2.34-.967a4.837 4.837 0 0 0 1.598-1.783c.397-.743.595-1.635.595-2.675 0-.991-.248-1.833-.743-2.527-.496-.693-1.202-1.325-2.118-1.895-.917-.57-2.056-1.09-3.419-1.56-1.362-.47-2.91-.979-4.644-1.524a44.385 44.385 0 0 1-4.942-1.932 16.54 16.54 0 0 1-4.31-2.86c-1.263-1.165-2.278-2.577-3.046-4.236-.768-1.66-1.152-3.679-1.152-6.057 0-2.922.594-5.424 1.783-7.505a15.503 15.503 0 0 1 4.682-5.127c1.932-1.338 4.112-2.316 6.54-2.936a29.65 29.65 0 0 1 7.356-.929c2.972 0 6.007.545 9.103 1.635 3.096 1.09 5.809 2.7 8.137 4.83l-8.1 8.546Z" fill="#3B4C60"/>
</svg>
